X:1966
T:Fiona's Return from Canada
O:england
R:Reel
N:26.8.90
M:4/4
Q:1/8=420
C:Andy Hornby
A:Lancaster
K:G
D|\
DGGB BddB| cBAG FAA2| DFFA ABcA|d2de dcBA|\
DGGB BddB|cBAG FAA2|
DFFA ABcA|dcAF G2G ::\
A|\
B2AG B2AG|BABc d3B|
c2Bc ABcA|fedc AFDF|\
GBAG DBAG|BABc d3e|fgfe d2Bd|cAFA G3:|
W:Copyright (C) Andy Hornby


